libs/ui/packages/crypto-icons/src/svg/XAI.svg

<svg width="24" height="24" viewBox="0 0 24 24" fill="none" xmlns="http://www.w3.org/2000/svg">
<path d="M12 24C18.6274 24 24 18.6274 24 12C24 5.3726 18.6274 0 12 0C5.3726 0 0 5.3726 0 12C0 18.6274 5.3726 24 12 24Z" fill="#FF4B2B"/>
<path d="M5.63321 9V10.245L6.99561 11.4002L8.35801 10.2448V9H9.39161V10.74L7.80261 12.08L9.39161 13.42V15.16H8.35801V13.915L6.99561 12.7596L5.63321 13.9148V15.16H4.59961V13.42L6.18841 12.08L4.59961 10.74V9H5.63321ZM13.9272 9L15.2236 10.328V15.16H14.19V12.604H11.4652V15.16H10.4316V10.328L11.7282 9H13.9272ZM19.4356 9V10.048H18.2764V14.1118L19.4356 14.112V15.16H16.0836V14.112L17.2428 14.1118V10.048H16.0836V9H19.4356ZM13.4986 10.048H12.1564L11.4652 10.7638V11.556H14.19V10.764L13.4986 10.048Z" fill="white"/>
</svg>

<svg xmlns="http://www.w3.org/2000/svg" width="24" height="24" viewBox="0 0 24 24" fill="none"><path fill="#ff4b2b" d="M12 24c6.627 0 12-5.373 12-12S18.627 0 12 0 0 5.373 0 12s5.373 12 12 12"/><path fill="#fff" d="M5.633 9v1.245L6.996 11.4l1.362-1.155V9h1.034v1.74l-1.59 1.34 1.59 1.34v1.74H8.358v-1.245L6.996 12.76l-1.363 1.155v1.245H4.6v-1.74l1.588-1.34L4.6 10.74V9zm8.294 0 1.297 1.328v4.832H14.19v-2.556h-2.725v2.556h-1.033v-4.832L11.728 9zm5.509 0v1.048h-1.16v4.064h1.16v1.048h-3.352v-1.048h1.159v-4.064h-1.16V9zm-5.937 1.048h-1.343l-.69.716v.792h2.724v-.792z"/></svg>
